!!!SOCIAL_FUNCTION:	songs connected with ceremonies
!!!PDT:	1929
!!!OTL: No_98_Clouds_are_Approaching.krn
!!!REG: Southwest
!!!LANG: Non-Tone
!!!LING_GROUP: Uto-Aztecan
**kern
*staff1
=1-
*clefF4
*k[b-e-a-d-]
*M3/4
8A-\L
8G\J
4A-\
8A-\L
16A-\L
16G\JJ
=2
8A-\L
8G\J
8F\L
8G\J
4F\
=3||
*M2/4
4F\
4r
=4||
*M3/4
8G\L
8G\J
4G\
8G\L
16G\L
16F\JJ
=5
8G\L
8F\J
8E-\L
8F\J
4D-\
=6||
*M2/4
4D-\
4r
=7
8F\L
8F\J
4G\
=8
8F\L
8F\J
12F\L
12F\
12F\J
=9
4F\
4r
=10
8F\L
8F\J
4G\
=11
8F\L
8F\J
12F\L
12F\
12F\J
=12
4F\
4r
=13||
*M3/4
4F\
2F\
=14
8F\L
8F\J
4F\
4r
==
*-
